src/catppuccin-latte-pink-cursors/wait-09_24.svg

<?xml version="1.0" encoding="UTF-8" standalone="no"?>
<svg
   id="svg5327"
   width="24"
   height="24"
   version="1.1"
   sodipodi:docname="wait-09_24.svg"
   inkscape:version="1.1.2 (0a00cf5339, 2022-02-04)"
   xmlns:inkscape="http://www.inkscape.org/namespaces/inkscape"
   xmlns:sodipodi="http://sodipodi.sourceforge.net/DTD/sodipodi-0.dtd"
   xmlns:xlink="http://www.w3.org/1999/xlink"
   xmlns="http://www.w3.org/2000/svg"
   xmlns:svg="http://www.w3.org/2000/svg">
  <sodipodi:namedview
     id="namedview22"
     pagecolor="#ffffff"
     bordercolor="#666666"
     borderopacity="1.0"
     inkscape:pageshadow="2"
     inkscape:pageopacity="0.0"
     inkscape:pagecheckerboard="0"
     showgrid="false"
     inkscape:snap-bbox="true"
     inkscape:snap-bbox-midpoints="true"
     inkscape:zoom="37.108964"
     inkscape:cx="8.0304047"
     inkscape:cy="9.6472647"
     inkscape:window-width="1896"
     inkscape:window-height="1020"
     inkscape:window-x="9"
     inkscape:window-y="45"
     inkscape:window-maximized="1"
     inkscape:current-layer="svg5327" />
  <defs
     id="defs5329">
    <filter
       id="filter837"
       style="color-interpolation-filters:sRGB"
       width="1.12"
       height="1.12"
       x="-0.059999999"
       y="-0.059999999">
      <feGaussianBlur
         id="feGaussianBlur839"
         stdDeviation=".55" />
    </filter>
    <linearGradient
       id="linearGradient832"
       x1="21"
       x2="25"
       y1="16"
       y2="28"
       gradientTransform="matrix(1.1888112,0,0,1.1888112,-14.248251,-15.248253)"
       gradientUnits="userSpaceOnUse"
       xlink:href="#linearGradient830" />
    <linearGradient
       id="linearGradient830">
      <stop
         id="stop826"
         style="stop-color:#ffffff;stop-opacity:1"
         offset="0" />
      <stop
         id="stop828"
         style="stop-color:#ffffff;stop-opacity:0"
         offset="1" />
    </linearGradient>
    <filter
       id="filter862"
       style="color-interpolation-filters:sRGB"
       width="1.12"
       height="1.12"
       x="-0.059999999"
       y="-0.059999999">
      <feGaussianBlur
         id="feGaussianBlur864"
         stdDeviation=".4" />
    </filter>
    <filter
       id="filter835"
       style="color-interpolation-filters:sRGB"
       width="1.1439988"
       height="1.1439984"
       x="-0.071999421"
       y="-0.071999216">
      <feGaussianBlur
         id="feGaussianBlur837"
         stdDeviation=".48" />
    </filter>
    <filter
       id="filter839"
       style="color-interpolation-filters:sRGB"
       width="1.1440001"
       height="1.1440001"
       x="-0.072000004"
       y="-0.072000004">
      <feGaussianBlur
         id="feGaussianBlur841"
         stdDeviation=".66" />
    </filter>
    <filter
       inkscape:collect="always"
       style="color-interpolation-filters:sRGB"
       id="filter975"
       x="-0.023520001"
       y="-0.023520001"
       width="1.04704"
       height="1.04704">
      <feGaussianBlur
         inkscape:collect="always"
         stdDeviation="0.1666"
         id="feGaussianBlur977" />
    </filter>
    <linearGradient
       id="linearGradient832-3"
       x1="21"
       x2="25"
       y1="16"
       y2="28"
       gradientTransform="matrix(1.1538462,0,0,1.1538462,-13.461538,-14.461539)"
       gradientUnits="userSpaceOnUse"
       xlink:href="#linearGradient830" />
    <filter
       id="filter831"
       style="color-interpolation-filters:sRGB"
       width="1.1450988"
       height="1.142668"
       x="-0.072549419"
       y="-0.071333981">
      <feGaussianBlur
         id="feGaussianBlur833"
         stdDeviation=".475" />
    </filter>
    <filter
       id="filter831-6"
       style="color-interpolation-filters:sRGB"
       width="1.1517499"
       height="1.1372881"
       x="-0.075874928"
       y="-0.068644048">
      <feGaussianBlur
         id="feGaussianBlur833-2"
         stdDeviation=".457" />
    </filter>
    <filter
       id="filter831-7"
       style="color-interpolation-filters:sRGB"
       width="1.1653967"
       height="1.1272932"
       x="-0.082698353"
       y="-0.063646603">
      <feGaussianBlur
         id="feGaussianBlur833-0"
         stdDeviation=".424" />
    </filter>
    <filter
       id="filter831-0"
       style="color-interpolation-filters:sRGB"
       width="1.1515836"
       height="1.1370924"
       x="-0.07579182"
       y="-0.068546176">
      <feGaussianBlur
         id="feGaussianBlur833-6"
         stdDeviation=".457" />
    </filter>
    <filter
       id="filter835-8"
       style="color-interpolation-filters:sRGB"
       width="1.145297"
       height="1.1427373"
       x="-0.072648522"
       y="-0.071368647">
      <feGaussianBlur
         id="feGaussianBlur837-7"
         stdDeviation=".476" />
    </filter>
    <filter
       id="filter835-2"
       style="color-interpolation-filters:sRGB"
       width="1.1439984"
       height="1.1440002"
       x="-0.071999224"
       y="-0.072000092">
      <feGaussianBlur
         id="feGaussianBlur837-3"
         stdDeviation=".48" />
    </filter>
    <filter
       id="filter835-22"
       style="color-interpolation-filters:sRGB"
       width="1.1426585"
       height="1.1451452"
       x="-0.071329268"
       y="-0.072572586">
      <feGaussianBlur
         id="feGaussianBlur837-8"
         stdDeviation=".475" />
    </filter>
    <filter
       id="filter831-61"
       style="color-interpolation-filters:sRGB"
       width="1.1372639"
       height="1.1517773"
       x="-0.06863197"
       y="-0.075888645">
      <feGaussianBlur
         id="feGaussianBlur833-29"
         stdDeviation=".457" />
    </filter>
  </defs>
  <circle
     id="circle937"
     style="opacity:0.1;fill:#000000;fill-opacity:1;stroke:none;stroke-width:1.7;stroke-linecap:round;stroke-linejoin:round;stroke-miterlimit:4;stroke-dasharray:none;stroke-opacity:1;filter:url(#filter975)"
     cx="13"
     cy="12"
     r="8.5" />
  <circle
     id="path818"
     style="fill:#EFF1F5;fill-opacity:1;stroke:none;stroke-width:1.7;stroke-linecap:round;stroke-linejoin:round;stroke-miterlimit:4;stroke-dasharray:none;stroke-opacity:1"
     cx="12.5"
     cy="11.5"
     r="8.5" />
  <circle
     id="circle824"
     style="fill:#EA76CB;fill-opacity:1;stroke:none;stroke-width:1.5;stroke-linecap:round;stroke-linejoin:round;stroke-miterlimit:4;stroke-dasharray:none;stroke-opacity:1"
     cx="12.5"
     cy="11.5"
     r="7.5" />
  <path
     id="path824"
     style="opacity:0.2;fill:#EA76CB;fill-opacity:1;stroke:none;stroke-width:2.72727;stroke-linecap:round;stroke-linejoin:round;stroke-miterlimit:4;stroke-dasharray:none;stroke-opacity:1"
     d="M 20,11.5 A 7.5,7.5 0 0 1 12.5,19 7.5,7.5 0 0 1 5,11.5 7.5,7.5 0 0 1 12.5,4 7.5,7.5 0 0 1 20,11.5 Z" />
  <path
     id="path821"
     style="color:#000000;font-style:normal;font-variant:normal;font-weight:normal;font-stretch:normal;font-size:medium;line-height:normal;font-family:sans-serif;font-variant-ligatures:normal;font-variant-position:normal;font-variant-caps:normal;font-variant-numeric:normal;font-variant-alternates:normal;font-feature-settings:normal;text-indent:0;text-align:start;text-decoration:none;text-decoration-line:none;text-decoration-style:solid;text-decoration-color:#000000;letter-spacing:normal;word-spacing:normal;text-transform:none;writing-mode:lr-tb;direction:ltr;text-orientation:mixed;dominant-baseline:auto;baseline-shift:baseline;text-anchor:start;white-space:normal;shape-padding:0;clip-rule:nonzero;display:inline;overflow:visible;visibility:visible;opacity:0.2;isolation:auto;mix-blend-mode:normal;color-interpolation:sRGB;color-interpolation-filters:linearRGB;solid-color:#000000;solid-opacity:1;vector-effect:none;fill:#000000;fill-opacity:1;fill-rule:nonzero;stroke:none;stroke-width:1.00069;stroke-linecap:round;stroke-linejoin:round;stroke-miterlimit:4;stroke-dasharray:none;stroke-dashoffset:0;stroke-opacity:1;filter:url(#filter831-61);color-rendering:auto;image-rendering:auto;shape-rendering:auto;text-rendering:auto;enable-background:accumulate"
     d="m 19.800336,9.2755486 a 0.49792399,0.50330224 30 0 0 -0.199219,0.9589834 c 1.802439,0.877433 3.132964,2.492752 3.654297,4.439452 0.521333,1.946697 0.180683,4.034345 -0.933593,5.726563 a 0.49791498,0.50329313 30 1 0 0.832031,0.546875 c 0.159135,-0.241685 0.302324,-0.489573 0.433594,-0.744141 0.918935,-1.781944 1.150102,-3.84874 0.628906,-5.794922 -0.59565,-2.224206 -2.116397,-4.077564 -4.175781,-5.080076 a 0.49792399,0.50330224 30 0 0 -0.240235,-0.052734 z m -9.55664,2.5468734 a 0.49889536,0.50328986 30 0 0 -0.3984376,0.228515 c -1.2733434,1.9333 -1.6589813,4.319122 -1.0605469,6.544922 0.5984678,2.22579 2.1242205,4.077268 4.1874995,5.082031 a 0.49890424,0.50329883 30 0 0 0.652344,-0.201172 0.49890424,0.50329883 30 0 0 -0.210938,-0.703124 C 11.60777,21.894189 10.273322,20.276371 9.7495553,18.328281 9.2258049,16.380183 9.5647711,14.291853 10.679243,12.599765 a 0.49889536,0.50328986 30 0 0 -0.435547,-0.777343 z m 4.451171,0.05469 a 0.49606359,0.49808729 60 0 0 -0.216796,0.05274 c -1.392635,0.609175 -2.433721,1.817319 -2.824219,3.283203 -0.341714,1.282641 -0.150759,2.64062 0.509765,3.771484 0.09436,0.161551 0.197106,0.317265 0.310547,0.46875 a 0.49593692,0.4979601 60 1 0 0.796875,-0.595703 c -0.72642,-0.970052 -0.964917,-2.219216 -0.652343,-3.392578 0.312542,-1.173371 1.141137,-2.139343 2.255859,-2.626953 a 0.49606359,0.49808729 60 0 0 -0.179688,-0.960938 z m 5.408204,1.455078 a 0.49593692,0.49994779 60 0 0 -0.375,0.810547 c 0.726918,0.969766 0.965927,2.22141 0.65039,3.396484 -0.315535,1.175074 -1.148674,2.142794 -2.267578,2.632813 a 0.49606359,0.50007549 60 0 0 -0.232422,0.710937 0.49606359,0.50007549 60 0 0 0.626953,0.197266 c 1.397853,-0.612188 2.443689,-1.822993 2.837891,-3.291016 0.394197,-1.468023 0.09368,-3.032609 -0.814453,-4.24414 A 0.49593692,0.49994779 60 0 0 20.103071,13.33219 Z"
     transform="matrix(0.75,0,0,0.75,0.5,-0.49999996)" />
  <path
     id="path847"
     style="color:#000000;font-style:normal;font-variant:normal;font-weight:normal;font-stretch:normal;font-size:medium;line-height:normal;font-family:sans-serif;font-variant-ligatures:normal;font-variant-position:normal;font-variant-caps:normal;font-variant-numeric:normal;font-variant-alternates:normal;font-feature-settings:normal;text-indent:0;text-align:start;text-decoration:none;text-decoration-line:none;text-decoration-style:solid;text-decoration-color:#000000;letter-spacing:normal;word-spacing:normal;text-transform:none;writing-mode:lr-tb;direction:ltr;text-orientation:mixed;dominant-baseline:auto;baseline-shift:baseline;text-anchor:start;white-space:normal;shape-padding:0;clip-rule:nonzero;display:inline;overflow:visible;visibility:visible;isolation:auto;mix-blend-mode:normal;color-interpolation:sRGB;color-interpolation-filters:linearRGB;solid-color:#000000;solid-opacity:1;vector-effect:none;fill:#EFF1F5;fill-opacity:1;fill-rule:nonzero;stroke:none;stroke-width:0.750517;stroke-linecap:round;stroke-linejoin:round;stroke-miterlimit:4;stroke-dasharray:none;stroke-dashoffset:0;stroke-opacity:1;color-rendering:auto;image-rendering:auto;shape-rendering:auto;text-rendering:auto;enable-background:accumulate"
     d="m 14.975586,6.081543 a 0.37344299,0.37747668 30 0 0 -0.149414,0.7192383 c 1.351829,0.6580755 2.349723,1.8695647 2.740722,3.3295897 0.391,1.460023 0.135512,3.025759 -0.700194,4.294922 a 0.37343624,0.37746985 30 1 0 0.624023,0.410157 c 0.119351,-0.181264 0.226743,-0.36718 0.325195,-0.558106 0.689202,-1.336458 0.862577,-2.886555 0.47168,-4.3461917 C 17.84086,8.2629978 16.7003,6.8729791 15.155762,6.1210938 A 0.37344299,0.37747668 30 0 0 14.975586,6.081543 Z M 7.8081054,7.9916995 A 0.37417152,0.3774674 30 0 0 7.5092773,8.1630858 C 6.5542698,9.6130608 6.2650413,11.402427 6.7138671,13.071777 7.162718,14.74112 8.3070327,16.129728 9.854492,16.883301 A 0.37417818,0.37747412 30 0 0 10.34375,16.732422 0.37417818,0.37747412 30 0 0 10.185546,16.205079 C 8.8311612,15.545525 7.8303252,14.332161 7.4375,12.871094 7.0446872,11.41002 7.2989119,9.8437728 8.134766,8.5747068 A 0.37417152,0.3774674 30 0 0 7.8081054,7.9916995 Z m 3.3383786,0.041017 a 0.37204769,0.37356547 60 0 0 -0.162597,0.039555 C 9.9394107,8.5291528 9.1585962,9.4352608 8.8657228,10.534674 c -0.2562856,0.961981 -0.1130693,1.980465 0.3823237,2.828613 0.07077,0.121164 0.1478295,0.237949 0.2329102,0.351563 A 0.37195269,0.37347008 60 1 0 10.078613,13.268073 C 9.533798,12.540534 9.3549252,11.603661 9.5893557,10.723639 9.8237623,9.8436108 10.445209,9.1191318 11.28125,8.7534243 A 0.37204769,0.37356547 60 0 0 11.146484,8.0327208 Z m 4.056153,1.0913085 a 0.37195269,0.37496084 60 0 0 -0.28125,0.6079103 c 0.545189,0.7273247 0.724445,1.6660577 0.487793,2.5473627 -0.236652,0.881305 -0.861506,1.607095 -1.700684,1.974611 a 0.37204769,0.37505662 60 0 0 -0.174316,0.533201 0.37204769,0.37505662 60 0 0 0.470214,0.14795 c 1.04839,-0.459141 1.832767,-1.367245 2.128418,-2.468262 0.295648,-1.101017 0.07026,-2.274456 -0.610839,-3.1831047 A 0.37195269,0.37496084 60 0 0 15.202637,9.124025 Z" />
</svg>

<svg xmlns="http://www.w3.org/2000/svg" width="24" height="24">
    <defs>
        <filter id="a" width="1.047" height="1.047" x="-.024" y="-.024" style="color-interpolation-filters:sRGB">
            <feGaussianBlur stdDeviation=".167"/>
        </filter>
        <filter id="b" width="1.137" height="1.152" x="-.069" y="-.076" style="color-interpolation-filters:sRGB">
            <feGaussianBlur stdDeviation=".457"/>
        </filter>
    </defs>
    <circle cx="13" cy="12" r="8.5" style="opacity:.1;fill:#000;fill-opacity:1;stroke:none;stroke-width:1.7;stroke-linecap:round;stroke-linejoin:round;stroke-miterlimit:4;stroke-dasharray:none;stroke-opacity:1;filter:url(#a)"/>
    <circle cx="12.5" cy="11.5" r="8.5" style="fill:#eff1f5;fill-opacity:1;stroke:none;stroke-width:1.7;stroke-linecap:round;stroke-linejoin:round;stroke-miterlimit:4;stroke-dasharray:none;stroke-opacity:1"/>
    <circle cx="12.5" cy="11.5" r="7.5" style="fill:#ea76cb;fill-opacity:1;stroke:none;stroke-width:1.5;stroke-linecap:round;stroke-linejoin:round;stroke-miterlimit:4;stroke-dasharray:none;stroke-opacity:1"/>
    <path d="M20 11.5a7.5 7.5 0 0 1-7.5 7.5A7.5 7.5 0 0 1 5 11.5 7.5 7.5 0 0 1 12.5 4a7.5 7.5 0 0 1 7.5 7.5" style="opacity:.2;fill:#ea76cb;fill-opacity:1;stroke:none;stroke-width:2.72727;stroke-linecap:round;stroke-linejoin:round;stroke-miterlimit:4;stroke-dasharray:none;stroke-opacity:1"/>
    <path d="M19.8 9.276a.498.503 30 0 0-.199.959 6.92 6.92 0 0 1 3.654 4.439 7.1 7.1 0 0 1-.933 5.727.498.503 30 1 0 .832.546q.237-.362.433-.744a8.1 8.1 0 0 0 .63-5.795 7.92 7.92 0 0 0-4.176-5.08.498.503 30 0 0-.24-.052m-9.556 2.546a.499.503 30 0 0-.399.229 8.1 8.1 0 0 0-1.06 6.545 7.94 7.94 0 0 0 4.187 5.082.499.503 30 0 0 .653-.201.499.503 30 0 0-.211-.703 6.94 6.94 0 0 1-3.664-4.446 7.08 7.08 0 0 1 .93-5.728.499.503 30 0 0-.436-.778m4.45.055a.496.498 60 0 0-.216.053 4.99 4.99 0 0 0-2.824 3.283 4.95 4.95 0 0 0 .82 4.24.496.498 60 1 0 .797-.595 3.96 3.96 0 0 1-.652-3.393 3.99 3.99 0 0 1 2.256-2.627.496.498 60 0 0-.18-.96m5.41 1.455a.496.5 60 0 0-.376.81 3.95 3.95 0 0 1 .65 3.397 4.01 4.01 0 0 1-2.267 2.633.496.5 60 0 0-.233.711.496.5 60 0 0 .627.197 5.02 5.02 0 0 0 2.838-3.29 4.94 4.94 0 0 0-.814-4.245.496.5 60 0 0-.426-.213" style="color:#000;font-style:normal;font-variant:normal;font-weight:400;font-stretch:normal;font-size:medium;line-height:normal;font-family:sans-serif;font-variant-ligatures:normal;font-variant-position:normal;font-variant-caps:normal;font-variant-numeric:normal;font-variant-alternates:normal;font-feature-settings:normal;text-indent:0;text-align:start;text-decoration:none;text-decoration-line:none;text-decoration-style:solid;text-decoration-color:#000;letter-spacing:normal;word-spacing:normal;text-transform:none;writing-mode:lr-tb;direction:ltr;text-orientation:mixed;dominant-baseline:auto;baseline-shift:baseline;text-anchor:start;white-space:normal;shape-padding:0;clip-rule:nonzero;display:inline;overflow:visible;visibility:visible;opacity:.2;isolation:auto;mix-blend-mode:normal;color-interpolation:sRGB;color-interpolation-filters:linearRGB;solid-color:#000;solid-opacity:1;vector-effect:none;fill:#000;fill-opacity:1;fill-rule:nonzero;stroke:none;stroke-width:1.00069;stroke-linecap:round;stroke-linejoin:round;stroke-miterlimit:4;stroke-dasharray:none;stroke-dashoffset:0;stroke-opacity:1;filter:url(#b);color-rendering:auto;image-rendering:auto;shape-rendering:auto;text-rendering:auto;enable-background:accumulate" transform="matrix(.75 0 0 .75 .5 -.5)"/>
    <path d="M14.976 6.082a.373.377 30 0 0-.15.719 5.2 5.2 0 0 1 2.74 3.33 5.32 5.32 0 0 1-.7 4.294.373.377 30 1 0 .625.41q.178-.27.325-.558a6.06 6.06 0 0 0 .472-4.346 5.94 5.94 0 0 0-3.132-3.81.373.377 30 0 0-.18-.04m-7.168 1.91a.374.377 30 0 0-.299.171 6.07 6.07 0 0 0-.795 4.909 5.95 5.95 0 0 0 3.14 3.811.374.377 30 0 0 .49-.15.374.377 30 0 0-.158-.528 5.2 5.2 0 0 1-2.748-3.334 5.3 5.3 0 0 1 .697-4.296.374.377 30 0 0-.327-.583m3.338.04a.372.374 60 0 0-.162.04 3.74 3.74 0 0 0-2.118 2.463 3.72 3.72 0 0 0 .615 3.18.372.373 60 1 0 .598-.447 2.97 2.97 0 0 1-.49-2.544 2.99 2.99 0 0 1 1.692-1.97.372.374 60 0 0-.135-.721m4.057 1.092a.372.375 60 0 0-.282.608c.546.727.725 1.666.488 2.547a3 3 0 0 1-1.7 1.975.372.375 60 0 0-.175.533.372.375 60 0 0 .47.148 3.77 3.77 0 0 0 2.129-2.468 3.7 3.7 0 0 0-.611-3.183.372.375 60 0 0-.32-.16" style="color:#000;font-style:normal;font-variant:normal;font-weight:400;font-stretch:normal;font-size:medium;line-height:normal;font-family:sans-serif;font-variant-ligatures:normal;font-variant-position:normal;font-variant-caps:normal;font-variant-numeric:normal;font-variant-alternates:normal;font-feature-settings:normal;text-indent:0;text-align:start;text-decoration:none;text-decoration-line:none;text-decoration-style:solid;text-decoration-color:#000;letter-spacing:normal;word-spacing:normal;text-transform:none;writing-mode:lr-tb;direction:ltr;text-orientation:mixed;dominant-baseline:auto;baseline-shift:baseline;text-anchor:start;white-space:normal;shape-padding:0;clip-rule:nonzero;display:inline;overflow:visible;visibility:visible;isolation:auto;mix-blend-mode:normal;color-interpolation:sRGB;color-interpolation-filters:linearRGB;solid-color:#000;solid-opacity:1;vector-effect:none;fill:#eff1f5;fill-opacity:1;fill-rule:nonzero;stroke:none;stroke-width:.750517;stroke-linecap:round;stroke-linejoin:round;stroke-miterlimit:4;stroke-dasharray:none;stroke-dashoffset:0;stroke-opacity:1;color-rendering:auto;image-rendering:auto;shape-rendering:auto;text-rendering:auto;enable-background:accumulate"/>
</svg>
